public/images/icons/email.svg

<svg width="59" height="60" viewBox="0 0 59 60" fill="none" xmlns="http://www.w3.org/2000/svg">
<g id="Group 8">
<circle id="Ellipse 1" cx="29.5" cy="30" r="29.5" fill="#2F3975"/>
<path id="Rectangle 394 (Stroke)" d="M16 23.8333C16 21.9924 17.511 20.5 19.375 20.5H39.625C41.489 20.5 43 21.9924 43 23.8333V37.1667C43 39.0076 41.489 40.5 39.625 40.5H19.375C17.511 40.5 16 39.0076 16 37.1667V23.8333ZM19.375 22.1667C18.443 22.1667 17.6875 22.9129 17.6875 23.8333V24.1948L29.5 31.1948L41.3125 24.1948V23.8333C41.3125 22.9129 40.557 22.1667 39.625 22.1667H19.375ZM41.3125 26.1385L33.3676 30.8466L41.3125 35.6754V26.1385ZM41.2555 37.5977L31.7373 31.8127L29.5 33.1385L27.2627 31.8127L17.7445 37.5977C17.9368 38.3092 18.5939 38.8333 19.375 38.8333H39.625C40.4061 38.8333 41.0632 38.3092 41.2555 37.5977ZM17.6875 35.6754L25.6324 30.8466L17.6875 26.1385V35.6754Z" fill="white"/>
</g>
</svg>

<svg xmlns="http://www.w3.org/2000/svg" width="59" height="60" fill="none"><circle cx="29.5" cy="30" r="29.5" fill="#2F3975"/><path fill="#fff" d="M16 23.833c0-1.84 1.511-3.333 3.375-3.333h20.25c1.864 0 3.375 1.492 3.375 3.333v13.334c0 1.84-1.511 3.333-3.375 3.333h-20.25C17.511 40.5 16 39.008 16 37.167V23.833Zm3.375-1.666c-.932 0-1.687.746-1.687 1.666v.362l11.812 7 11.813-7v-.362c0-.92-.756-1.666-1.688-1.666h-20.25Zm21.938 3.971-7.945 4.709 7.944 4.828V26.14Zm-.058 11.46-9.518-5.785-2.237 1.326-2.237-1.326-9.519 5.785c.193.711.85 1.235 1.631 1.235h20.25c.781 0 1.438-.524 1.63-1.235Zm-23.568-1.923 7.945-4.828-7.945-4.709v9.537Z"/></svg>
